X:368
T:Jan Souk archget
Z: id:dc-reel-114
M:C
L:1/8
K:G Major
G|DGGF G2jGB|c2Ac BGGC|DB=cB AGFD|Acdc BGGB|!
dDDc B2cd|ecA2 cBFG|DGAB cdef|gfec BGEc|]!
AdBc ABcF|eacg ecAF|GABG FAFA|BAcE AGcA|]!
e3e|=faed cAAc|dcef gfag|fge2 fedc|BGEE D2B,|!
A,DD FA,A,|ccA B2c|ABA B2d|cAG E2D|!
cAA d3|Add Ad^c|dfe agf|gfe dcd|!
ecA ecA|def cBA|egf gfe|dcB A2:|!